X: 0654
M: 2/4
L: 1/8
K: D
dd ee | fd g>g | fd ec/c/ | dd AA |\
dd ee | fd g>g | fd/d/ ec | dd A2 |
dd/d/ c/e/z | df g/e/z | dd/d/ c/e/z | dA[dF]z & d2x2 |]\
dA/A/ eA/A/ | fd/d/ g/e/c | d/e/f/d/ c/d/e/g/ | f/d/e/c/ d |]


